src/assets/icons/add-block.svg

<svg width="20" height="20" viewBox="0 0 20 20" fill="none" xmlns="http://www.w3.org/2000/svg">
<path d="M5 2.5C3.61929 2.5 2.5 3.61929 2.5 5V6.875C2.5 8.25571 3.61929 9.375 5 9.375H6.875C8.25571 9.375 9.375 8.25571 9.375 6.875V5C9.375 3.61929 8.25571 2.5 6.875 2.5H5Z" fill="#A685FA"/>
<path d="M13.125 2.5C11.7443 2.5 10.625 3.61929 10.625 5V6.875C10.625 8.25571 11.7443 9.375 13.125 9.375H15C16.3807 9.375 17.5 8.25571 17.5 6.875V5C17.5 3.61929 16.3807 2.5 15 2.5H13.125Z" fill="#A685FA"/>
<path d="M5 10.625C3.61929 10.625 2.5 11.7443 2.5 13.125V15C2.5 16.3807 3.61929 17.5 5 17.5H6.875C8.25571 17.5 9.375 16.3807 9.375 15V13.125C9.375 11.7443 8.25571 10.625 6.875 10.625H5Z" fill="#A685FA"/>
<path d="M14.6875 11.25C14.6875 10.9048 14.4077 10.625 14.0625 10.625C13.7173 10.625 13.4375 10.9048 13.4375 11.25V13.4375H11.25C10.9048 13.4375 10.625 13.7173 10.625 14.0625C10.625 14.4077 10.9048 14.6875 11.25 14.6875H13.4375V16.875C13.4375 17.2202 13.7173 17.5 14.0625 17.5C14.4077 17.5 14.6875 17.2202 14.6875 16.875V14.6875H16.875C17.2202 14.6875 17.5 14.4077 17.5 14.0625C17.5 13.7173 17.2202 13.4375 16.875 13.4375H14.6875V11.25Z" fill="#A685FA"/>
</svg>

<svg xmlns="http://www.w3.org/2000/svg" width="20" height="20" fill="#a685fa" xmlns:v="https://vecta.io/nano"><path d="M5 2.5A2.5 2.5 0 0 0 2.5 5v1.875a2.5 2.5 0 0 0 2.5 2.5h1.875a2.5 2.5 0 0 0 2.5-2.5V5a2.5 2.5 0 0 0-2.5-2.5H5zm8.125 0a2.5 2.5 0 0 0-2.5 2.5v1.875a2.5 2.5 0 0 0 2.5 2.5H15a2.5 2.5 0 0 0 2.5-2.5V5A2.5 2.5 0 0 0 15 2.5h-1.875zM5 10.625a2.5 2.5 0 0 0-2.5 2.5V15A2.5 2.5 0 0 0 5 17.5h1.875a2.5 2.5 0 0 0 2.5-2.5v-1.875a2.5 2.5 0 0 0-2.5-2.5H5zm9.688.625c0-.345-.28-.625-.625-.625s-.625.28-.625.625v2.188H11.25c-.345 0-.625.28-.625.625s.28.625.625.625h2.188v2.188c0 .345.28.625.625.625s.625-.28.625-.625v-2.187h2.188c.345 0 .625-.28.625-.625s-.28-.625-.625-.625h-2.187V11.25z"/></svg>
